X:340
T: Mountain Road
C: Michael Gorman
M: 4/4
L: 1/8
R: Reel
K: D
F2AF BFAF|F2AF EFDE|F2AF BFAF|G2FG EDB,D|
F2AF BFAF|F2AF EFDE|FA~A2 BAFB|ABde fdd2||
dcdB ADFA|dcde fgfe|dcdB ADFA|(3GFE (3FED EDB,D|
dcdB ADFA|dcde fgfe|defd AFDF|(3GFE (3FED EDB,D||
